;START_OF_HEADER
;HEADER_VERSION:0.1
;FLAVOR:Griffin
;GENERATOR.NAME:Cura_SteamEngine
;GENERATOR.VERSION:3.1.0
;GENERATOR.BUILD_DATE:2017-12-05
;TARGET_MACHINE.NAME:Ultimaker 3
;EXTRUDER_TRAIN.0.INITIAL_TEMPERATURE:215
;EXTRUDER_TRAIN.0.MATERIAL.VOLUME_USED:9172
;EXTRUDER_TRAIN.0.MATERIAL.GUID:506c9f0d-e3aa-4bd4-b2d2-23e2425b1aa9
;EXTRUDER_TRAIN.0.NOZZLE.DIAMETER:0.4
;EXTRUDER_TRAIN.0.NOZZLE.NAME:AA 0.4
;BUILD_PLATE.INITIAL_TEMPERATURE:60
;PRINT.TIME:5201
;PRINT.SIZE.MIN.X:9
;PRINT.SIZE.MIN.Y:6
;PRINT.SIZE.MIN.Z:0.27
;PRINT.SIZE.MAX.X:173.325
;PRINT.SIZE.MAX.Y:164.325
;PRINT.SIZE.MAX.Z:60.03
;END_OF_HEADER
;Generated with Cura_SteamEngine 3.1.0
T0
M82 ; absolute extrusion mode

G92 E0
M109 S215
G0 F15000 X9 Y6 Z2
G280
G1 F1500 E-6.5
;LAYER_COUNT:1
;LAYER:0
M107
M204 S625
M205 X6 Y6
G0 X15 Y15 Z0.2 F1200
G0 E0 F1500
M214 K0.25
M204 S4000
M205 X25 Y25
G0 X15 Y185 E2.131863072748318 F1200
G0 X185 Y185 E4.263726145496636 F1200
G0 X185 Y15 E6.395589218244954 F1200
G0 X20 Y15 E8.464750435912439 F1200
G0 X20 Y20 E8.527452290993272 F3000.0
G0 X155.41488287478933 Y25.912722362875318 E10.227332473285017 F3000.0
G5 X160 Y26.11253200719169 S0.012540371016166578 E0.0 F3000.0
G5 X155.41488287478933 Y26.31234165150806 S0.0 E0.012540371016166578 F3000.0
G0 X20 Y32.22506401438338 E11.984766295838542 F3000.0
G0 X20 Y32.22506401438338 Z0.4 F3000.0
M106 S85
G0 X20 Y20 E12.138073134275295 F3000.0
G0 X155.41488287478933 Y25.912722362875318 E13.83795331656704 F3000.0
G5 X160 Y26.11253200719169 S0.012540371016166578 E0.0 F3000.0
G5 X155.41488287478933 Y26.31234165150806 S0.0 E0.012540371016166578 F3000.0
G0 X20 Y32.22506401438338 E15.595387139120565 F3000.0
G0 X20 Y32.22506401438338 Z0.6000000000000001 F3000.0
M106 S170
G0 X20 Y20 E15.748693977557318 F3000.0
G0 X155.41488287478933 Y25.912722362875318 E17.448574159849063 F3000.0
G5 X160 Y26.11253200719169 S0.012540371016166578 E0.0 F3000.0
G5 X155.41488287478933 Y26.31234165150806 S0.0 E0.012540371016166578 F3000.0
G0 X20 Y32.22506401438338 E19.20600798240259 F3000.0
G0 X20 Y32.22506401438338 Z0.8 F3000.0
M106 S255
G0 X20 Y20 E19.359314820839344 F3000.0
G0 X155.41488287478933 Y25.912722362875318 E21.059195003131087 F3000.0
G5 X160 Y26.11253200719169 S0.012540371016166578 E0.0 F3000.0
G5 X155.41488287478933 Y26.31234165150806 S0.0 E0.012540371016166578 F3000.0
G0 X20 Y32.22506401438338 E22.81662882568461 F3000.0
G0 X20 Y32.22506401438338 Z1.0 F3000.0
G0 X20 Y20 E22.969935664121365 F3000.0
G0 X155.41488287478933 Y25.912722362875318 E24.66981584641311 F3000.0
G5 X160 Y26.11253200719169 S0.012540371016166578 E0.0 F3000.0
G5 X155.41488287478933 Y26.31234165150806 S0.0 E0.012540371016166578 F3000.0
G0 X20 Y32.22506401438338 E26.42724966896663 F3000.0
G0 X20 Y32.22506401438338 Z1.2000000000000002 F3000.0
G0 X20 Y20 E26.580556507403386 F3000.0
G0 X155.41488287478933 Y25.912722362875318 E28.28043668969513 F3000.0
G5 X160 Y26.11253200719169 S0.012540371016166578 E0.0 F3000.0
G5 X155.41488287478933 Y26.31234165150806 S0.0 E0.012540371016166578 F3000.0
G0 X20 Y32.22506401438338 E30.037870512248652 F3000.0
G0 X20 Y32.22506401438338 Z1.4000000000000001 F3000.0
G0 X20 Y20 E30.191177350685408 F3000.0
G0 X155.41488287478933 Y25.912722362875318 E31.89105753297715 F3000.0
G5 X160 Y26.11253200719169 S0.012540371016166578 E0.0 F3000.0
G5 X155.41488287478933 Y26.31234165150806 S0.0 E0.012540371016166578 F3000.0
G0 X20 Y32.22506401438338 E33.64849135553067 F3000.0
G0 X20 Y32.22506401438338 Z1.6 F3000.0
G0 X20 Y20 E33.80179819396743 F3000.0
G0 X155.41488287478933 Y25.912722362875318 E35.50167837625917 F3000.0
G5 X160 Y26.11253200719169 S0.012540371016166578 E0.0 F3000.0
G5 X155.41488287478933 Y26.31234165150806 S0.0 E0.012540371016166578 F3000.0
G0 X20 Y32.22506401438338 E37.2591121988127 F3000.0
G0 X20 Y32.22506401438338 Z1.8 F3000.0
G0 X20 Y20 E37.41241903724946 F3000.0
G0 X155.41488287478933 Y25.912722362875318 E39.1122992195412 F3000.0
G5 X160 Y26.11253200719169 S0.012540371016166578 E0.0 F3000.0
G5 X155.41488287478933 Y26.31234165150806 S0.0 E0.012540371016166578 F3000.0
G0 X20 Y32.22506401438338 E40.86973304209473 F3000.0
G0 X20 Y32.22506401438338 Z2.0 F3000.0
G0 X20 Y20 E41.023039880531485 F3000.0
G0 X155.41488287478933 Y25.912722362875318 E42.72292006282323 F3000.0
G5 X160 Y26.11253200719169 S0.012540371016166578 E0.0 F3000.0
G5 X155.41488287478933 Y26.31234165150806 S0.0 E0.012540371016166578 F3000.0
G0 X20 Y32.22506401438338 E44.48035388537676 F3000.0
G0 X20 Y32.22506401438338 Z2.2 F3000.0
G0 X20 Y20 E44.63366072381351 F3000.0
G0 X155.41488287478933 Y25.912722362875318 E46.333540906105256 F3000.0
G5 X160 Y26.11253200719169 S0.012540371016166578 E0.0 F3000.0
G5 X155.41488287478933 Y26.31234165150806 S0.0 E0.012540371016166578 F3000.0
G0 X20 Y32.22506401438338 E48.090974728658786 F3000.0
G0 X20 Y32.22506401438338 Z2.4000000000000004 F3000.0
G0 X20 Y20 E48.24428156709554 F3000.0
G0 X155.41488287478933 Y25.912722362875318 E49.944161749387284 F3000.0
G5 X160 Y26.11253200719169 S0.012540371016166578 E0.0 F3000.0
G5 X155.41488287478933 Y26.31234165150806 S0.0 E0.012540371016166578 F3000.0
G0 X20 Y32.22506401438338 E51.701595571940814 F3000.0
G0 X20 Y32.22506401438338 Z2.6 F3000.0
G0 X20 Y20 E51.85490241037757 F3000.0
G0 X155.41488287478933 Y25.912722362875318 E53.55478259266931 F3000.0
G5 X160 Y26.11253200719169 S0.012540371016166578 E0.0 F3000.0
G5 X155.41488287478933 Y26.31234165150806 S0.0 E0.012540371016166578 F3000.0
G0 X20 Y32.22506401438338 E55.31221641522284 F3000.0
G0 X20 Y32.22506401438338 Z2.8000000000000003 F3000.0
G0 X20 Y20 E55.4655232536596 F3000.0
G0 X155.41488287478933 Y25.912722362875318 E57.16540343595134 F3000.0
G5 X160 Y26.11253200719169 S0.012540371016166578 E0.0 F3000.0
G5 X155.41488287478933 Y26.31234165150806 S0.0 E0.012540371016166578 F3000.0
G0 X20 Y32.22506401438338 E58.92283725850487 F3000.0
G0 X20 Y32.22506401438338 Z3.0 F3000.0
G0 X20 Y20 E59.076144096941626 F3000.0
G0 X155.41488287478933 Y25.912722362875318 E60.77602427923337 F3000.0
G5 X160 Y26.11253200719169 S0.012540371016166578 E0.0 F3000.0
G5 X155.41488287478933 Y26.31234165150806 S0.0 E0.012540371016166578 F3000.0
G0 X20 Y32.22506401438338 E62.5334581017869 F3000.0
G0 X20 Y32.22506401438338 Z3.2 F3000.0
G0 X20 Y20 E62.686764940223654 F3000.0
G0 X155.41488287478933 Y25.912722362875318 E64.3866451225154 F3000.0
G5 X160 Y26.11253200719169 S0.012540371016166578 E0.0 F3000.0
G5 X155.41488287478933 Y26.31234165150806 S0.0 E0.012540371016166578 F3000.0
G0 X20 Y32.22506401438338 E66.14407894506893 F3000.0
G0 X20 Y32.22506401438338 Z3.4000000000000004 F3000.0
G0 X20 Y20 E66.29738578350567 F3000.0
G0 X155.41488287478933 Y25.912722362875318 E67.99726596579742 F3000.0
G5 X160 Y26.11253200719169 S0.012540371016166578 E0.0 F3000.0
G5 X155.41488287478933 Y26.31234165150806 S0.0 E0.012540371016166578 F3000.0
G0 X20 Y32.22506401438338 E69.75469978835095 F3000.0
G0 X20 Y32.22506401438338 Z3.6 F3000.0
G0 X20 Y20 E69.9080066267877 F3000.0
G0 X155.41488287478933 Y25.912722362875318 E71.60788680907945 F3000.0
G5 X160 Y26.11253200719169 S0.012540371016166578 E0.0 F3000.0
G5 X155.41488287478933 Y26.31234165150806 S0.0 E0.012540371016166578 F3000.0
G0 X20 Y32.22506401438338 E73.36532063163297 F3000.0
G0 X20 Y32.22506401438338 Z3.8000000000000003 F3000.0
G0 X20 Y20 E73.51862747006972 F3000.0
G0 X155.41488287478933 Y25.912722362875318 E75.21850765236147 F3000.0
G5 X160 Y26.11253200719169 S0.012540371016166578 E0.0 F3000.0
G5 X155.41488287478933 Y26.31234165150806 S0.0 E0.012540371016166578 F3000.0
G0 X20 Y32.22506401438338 E76.97594147491499 F3000.0
G0 X20 Y32.22506401438338 Z4.0 F3000.0
G0 X20 Y20 E77.12924831335174 F3000.0
G0 X155.41488287478933 Y25.912722362875318 E78.82912849564349 F3000.0
G5 X160 Y26.11253200719169 S0.012540371016166578 E0.0 F3000.0
G5 X155.41488287478933 Y26.31234165150806 S0.0 E0.012540371016166578 F3000.0
G0 X20 Y32.22506401438338 E80.58656231819701 F3000.0
G0 X20 Y32.22506401438338 Z4.2 F3000.0
M214 K0.0
M107
