;START_OF_HEADER
;HEADER_VERSION:0.1
;FLAVOR:Griffin
;GENERATOR.NAME:Cura_SteamEngine
;GENERATOR.VERSION:3.1.0
;GENERATOR.BUILD_DATE:2017-12-05
;TARGET_MACHINE.NAME:Ultimaker 3
;EXTRUDER_TRAIN.0.INITIAL_TEMPERATURE:215
;EXTRUDER_TRAIN.0.MATERIAL.VOLUME_USED:9172
;EXTRUDER_TRAIN.0.MATERIAL.GUID:506c9f0d-e3aa-4bd4-b2d2-23e2425b1aa9
;EXTRUDER_TRAIN.0.NOZZLE.DIAMETER:0.4
;EXTRUDER_TRAIN.0.NOZZLE.NAME:AA 0.4
;BUILD_PLATE.INITIAL_TEMPERATURE:60
;PRINT.TIME:5201
;PRINT.SIZE.MIN.X:9
;PRINT.SIZE.MIN.Y:6
;PRINT.SIZE.MIN.Z:0.27
;PRINT.SIZE.MAX.X:173.325
;PRINT.SIZE.MAX.Y:164.325
;PRINT.SIZE.MAX.Z:60.03
;END_OF_HEADER
;Generated with Cura_SteamEnginE3.1.0
T0
M82 ; absolutEextrusion mode

G92 E0
M109 S215
G0 F15000 X9 Y6 Z2
G280
G1 F1500 E-6.5
;LAYER_COUNT:1
;LAYER:0
M107
M204 S625
M205 X6 Y6
G0 X150 Y150 Z0.2 F1200 ; start location
G0 E0 F1500 ; unretract
M214 K0.25
M204 S4000
M205 X25 Y25

M214 K0.25 ; bueno linear advance

G92 X1.75001 Y0.26281 ; set current pos as middle

;G5 X1.75001 Y0.26281 S0 E0
G5 X11.93004 Y0.18036 S0.015675463770208 E0.011380386697171
G5 X12.0125 Y0.0 S0.011380386697171 E0.011380386697171
G5 X11.93004 Y-0.18036 S0.011380386697171 E0.011380386697171
G5 X1.75001 Y-0.26281 S0.011380386697171 E0.015675463770208
G5 X1.75001 Y0.26281 S0.015675463770208 E0.015675463770208

;second poly
G5 X1.25001 Y0.788435 S0 E0
G5 X12.290755 Y0.541075 S0.015675463770208 E0.011505790407333
G5 X12.511315 Y0.23601 S0.011505790407333 E0.014828988726617
G5 X21.92322 Y0.16106 S0.014828988726617 E0.010189051450635
G5 X22.024975 Y0.0 S0.010189051450635 E0.010189051450635
G5 X21.92322 Y-0.16106 S0.010189051450635 E0.010189051450635
G5 X12.511315 Y-0.23601 S0.010189051450635 E0.014828988726617
G5 X12.290755 Y-0.541075 S0.014828988726617 E0.011505790407333
G5 X1.25001 Y-0.788435 S0.011505790407333 E0.015675463770208
G5 X1.25001 Y0.788435 S0.015675463770208 E0.015675463770208

;third poly
G5 X0.750005 Y1.31406 S0 E0
G5 X12.651475 Y0.901795 S0.015675463770208 E0.011662545045035
G5 X12.983785 Y0.70848 S0.011662545045035 E0.015173848929562
G5 X22.24527 Y0.48311 S0.015173848929562 E0.010345806088338
G5 X22.52305 Y0.235265 S0.010345806088338 E0.014891690581698
G5 X31.89697 Y0.122325 S0.014891690581698 E0.007743679102483
G5 X32.037455 Y0.0 S0.007743679102483 E0.007743679102483
G5 X31.89697 Y-0.122325 S0.007743679102483 E0.007743679102483
G5 X22.52305 Y-0.235265 S0.007743679102483 E0.014891690581698
G5 X22.24527 Y-0.48311 S0.014891690581698 E0.010345806088338
G5 X12.983785 Y-0.70848 S0.010345806088338 E0.015173848929562
G5 X12.651475 Y-0.901795 S0.015173848929562 E0.011662545045035
G5 X0.750005 Y-1.31406 S0.011662545045035 E0.015675463770208
G5 X0.750005 Y1.31406 S0.015675463770208 E0.015675463770208

;fourth poly
G5 X0.25 Y1.839685 S0 E0
G5 X13.01219 Y1.26251 S0.015675463770208 E0.011787948755197
G5 X13.45669 Y1.181385 S0.011787948755197 E0.015424656349885
G5 X22.567255 Y0.805095 S0.015424656349885 E0.01050256072604
G5 X22.993575 Y0.70579 S0.01050256072604 E0.015267901712183
G5 X32.141615 Y0.366975 S0.015267901712183 E0.007931784667725
G5 X32.5324 Y0.232135 S0.007931784667725 E0.014923041509238
G5 X36.906335 Y0.125455 S0.014923041509238 E0.008057188377887
G5 X37.043695 Y0.0 S0.008057188377887 E0.008057188377887
G5 X36.906335 Y-0.125455 S0.008057188377887 E0.008057188377887
G5 X32.5324 Y-0.232135 S0.008057188377887 E0.014923041509238
G5 X32.141615 Y-0.366975 S0.014923041509238 E0.007931784667725
G5 X22.993575 Y-0.70579 S0.007931784667725 E0.015267901712183
G5 X22.567255 Y-0.805095 S0.015267901712183 E0.01050256072604
G5 X13.45669 Y-1.181385 S0.01050256072604 E0.015424656349885
G5 X13.01219 Y-1.26251 S0.015424656349885 E0.011787948755197
G5 X0.25 Y-1.839685 S0.011787948755197 E0.015675463770208
G5 X0.25 Y1.839685 S0.015675463770208 E0.015675463770208

M214 K0.0
M107
