;START_OF_HEADER
;HEADER_VERSION:0.1
;FLAVOR:Griffin
;GENERATOR.NAME:Cura_SteamEngine
;GENERATOR.VERSION:3.1.0
;GENERATOR.BUILD_DATE:2017-12-05
;TARGET_MACHINE.NAME:Ultimaker 3
;EXTRUDER_TRAIN.0.INITIAL_TEMPERATURE:215
;EXTRUDER_TRAIN.0.MATERIAL.VOLUME_USED:9172
;EXTRUDER_TRAIN.0.MATERIAL.GUID:506c9f0d-e3aa-4bd4-b2d2-23e2425b1aa9
;EXTRUDER_TRAIN.0.NOZZLE.DIAMETER:0.4
;EXTRUDER_TRAIN.0.NOZZLE.NAME:AA 0.4
;BUILD_PLATE.INITIAL_TEMPERATURE:60
;PRINT.TIME:5201
;PRINT.SIZE.MIN.X:9
;PRINT.SIZE.MIN.Y:6
;PRINT.SIZE.MIN.Z:0.27
;PRINT.SIZE.MAX.X:173.325
;PRINT.SIZE.MAX.Y:164.325
;PRINT.SIZE.MAX.Z:60.03
;END_OF_HEADER
;Generated with Cura_SteamEnginE3.1.0
T0
M82 ; absolutEextrusion mode

G92 E0
M109 S215
G0 F15000 X9 Y6 Z2
G280
G1 F1500 E-6.5
;LAYER_COUNT:1
;LAYER:0
M107
M204 S625
M205 X6 Y6
G0 X100 Y150 Z0.3 F1200 ; start location
G0 E0 F1500 ; unretract
M204 S4000
M205 X25 Y25

M214 K0.4 ; bueno linear advance

G92 X3.5 Y-.5256 ; set next pos as current pos

; fir St poly
;G5 X3.5 Y-.5256 S0 E0
G5 F500 X13.246 Y-.4419 S0.015675463770208 E0.013853034352284
G5 X14.2753 Y0 S0.013853034352284 E0.015616524026432
G5 X23.4994 Y0 S0.015616524026432 E0.013536703493401
G5 X14.2753 Y0 S0 E0
G5 X13.246 Y.4419 S0 E0.013853034352284
G5 X3.5 Y.5256 S0.013853034352284 E0.015675463770208
G5 X3.5 Y-.5256 S0.015675463770208 E0.015675463770208

; S Econd poly
G5 X2.5 Y-1.5769 S0 E0
G5 X13.2903 Y-1.3256 S0.015675463770208 E0.013853034352284
G5 X14.3251 Y-.995 S0.013853034352284 E0.015616524026432
G5 X23.5425 Y-.8636 S0.015616524026432 E0.013536703493401
G5 X24.5754 Y-.495 S0.013536703493401 E0.015538146707581
G5 X33.5328 Y-.4199 S0.015538146707581 E0.013163940964946
G5 X34.5631 Y0 S0.013163940964946 E0.015487358204966
G5 X43.5243 Y0 S0.015487358204966 E0.012688974412708
G5 X34.5631 Y0 S0 E0
G5 X33.5328 Y.4199 S0 E0.013163940964946
G5 X24.5754 Y.495 S0.013163940964946 E0.015538146707581
G5 X23.5425 Y.8636 S0.015538146707581 E0.013536703493401
G5 X14.3251 Y.995 S0.013536703493401 E0.015616524026432
G5 X13.2903 Y1.3256 S0.015616524026432 E0.013853034352284
G5 X2.5 Y1.5769 S0.013853034352284 E0.015675463770208
G5 X2.5 Y-1.5769 S0.015675463770208 E0.015675463770208

;third poly
G5 X1.5 Y-2.6281 S0 E0
G5 X13.3345 Y-2.2093 S0.015675463770208 E0.013853034352284
G5 X14.3748 Y-1.990 S0.013853034352284 E0.015616524026432
G5 X23.5857 Y-1.7271 S0.015616524026432 E0.013536703493401
G5 X24.6249 Y-1.4850 S0.013536703493401 E0.015538146707581
G5 X33.5748 Y-1.2597 S0.015538146707581 E0.013163940964946
G5 X34.6124 Y-.9868 S0.013163940964946 E0.015487358204966
G5 X43.5648 Y-.8095 S0.015487358204966 E0.012688974412708
G5 X44.6002 Y-.4928 S0.012688974412708 E0.015469801685543
G5 X53.5559 Y-.3811 S0.015469801685543 E0.011947524976377
G5 X54.5881 Y0 S0.011947524976377 E0.01540114315423
G5 X63.5493 Y0 S0.01540114315423 E0.010724525293026
G5 X54.5881 Y0 S0 E0
G5 X53.5559 Y.3811 S0 E0.011947524976377
G5 X44.6002 Y.4928 S0.011947524976377 E0.015469801685543
G5 X43.5648 Y.8095 S0.015469801685543 E0.012688974412708
G5 X34.6124 Y.9868 S0.012688974412708 E0.015487358204966
G5 X33.5748 Y1.2597 S0.015487358204966 E0.013163940964946
G5 X24.6249 Y1.4850 S0.013163940964946 E0.015538146707581
G5 X23.5857 Y1.7271 S0.015538146707581 E0.013536703493401
G5 X14.3748 Y1.990 S0.013536703493401 E0.015616524026432
G5 X13.3345 Y2.2093 S0.015616524026432 E0.013853034352284
G5 X1.5 Y2.6281 S0.013853034352284 E0.015675463770208
G5 X1.5 Y-2.6281 S0.015675463770208 E0.015675463770208

;fourth poly
G5 X.5 Y-3.6794 S0 E0
G5 X13.3788 Y-3.0931 S0.015675463770208 E0.013853034352284
G5 X14.4246 Y-2.9851 S0.013853034352284 E0.015616524026432
G5 X23.6289 Y-2.5907 S0.015616524026432 E0.013536703493401
G5 X24.6744 Y-2.4750 S0.013536703493401 E0.015538146707581
G5 X33.6168 Y-2.0995 S0.015538146707581 E0.013163940964946
G5 X34.6618 Y-1.9735 S0.013163940964946 E0.015487358204966
G5 X43.6053 Y-1.6190 S0.015487358204966 E0.012688974412708
G5 X44.6495 Y-1.4785 S0.012688974412708 E0.015469801685543
G5 X53.5940 Y-1.1433 S0.015469801685543 E0.011947524976377
G5 X54.6371 Y-.9813 S0.011947524976377 E0.01540114315423
G5 X63.5834 Y-.6833 S0.01540114315423 E0.010724525293026
G5 X64.6248 Y-.4863 S0.010724525293026 E0.015264139600878
G5 X73.5749 Y-.2628 S0.015264139600878 E0.008239023757621
G5 X74.5936 Y0 S0.008239023757621 E0.014782589353857
G5 X78.5680 Y0 S0.014782589353857 E0.007797602697852
G5 X74.5936 Y0 S0 E0
G5 X73.5749 Y.2628 S0 E0.008239023757621
G5 X64.6248 Y.4863 S0.008239023757621 E0.015264139600878
G5 X63.5834 Y.6833 S0.015264139600878 E0.010724525293026
G5 X54.6371 Y.9813 S0.010724525293026 E0.01540114315423
G5 X53.5940 Y1.1433 S0.01540114315423 E0.011947524976377
G5 X44.6495 Y1.4785 S0.011947524976377 E0.015469801685543
G5 X43.6053 Y1.6190 S0.015469801685543 E0.012688974412708
G5 X34.6618 Y1.9735 S0.012688974412708 E0.015487358204966
G5 X33.6168 Y2.0995 S0.015487358204966 E0.013163940964946
G5 X24.6744 Y2.4750 S0.013163940964946 E0.015538146707581
G5 X23.6289 Y2.5907 S0.015538146707581 E0.013536703493401
G5 X14.4246 Y2.9851 S0.013536703493401 E0.015616524026432
G5 X13.3788 Y3.0931 S0.015616524026432 E0.013853034352284
G5 X.5 Y3.6794 S0.013853034352284 E0.015675463770208
G5 X.5 Y-3.6794 S0.015675463770208 E0.015675463770208


M214 K0.0
M107
