;START_OF_HEADER
;HEADER_VERSION:0.1
;FLAVOR:Griffin
;GENERATOR.NAME:Cura_SteamEngine
;GENERATOR.VERSION:3.1.0
;GENERATOR.BUILD_DATE:2017-12-05
;TARGET_MACHINE.NAME:Ultimaker 3
;EXTRUDER_TRAIN.0.INITIAL_TEMPERATURE:215
;EXTRUDER_TRAIN.0.MATERIAL.VOLUME_USED:9172
;EXTRUDER_TRAIN.0.MATERIAL.GUID:506c9f0d-e3aa-4bd4-b2d2-23e2425b1aa9
;EXTRUDER_TRAIN.0.NOZZLE.DIAMETER:0.4
;EXTRUDER_TRAIN.0.NOZZLE.NAME:AA 0.4
;BUILD_PLATE.INITIAL_TEMPERATURE:60
;PRINT.TIME:5201
;PRINT.SIZE.MIN.X:9
;PRINT.SIZE.MIN.Y:6
;PRINT.SIZE.MIN.Z:0.27
;PRINT.SIZE.MAX.X:173.325
;PRINT.SIZE.MAX.Y:164.325
;PRINT.SIZE.MAX.Z:60.03
;END_OF_HEADER
;Generated with Cura_SteamEnginE3.1.0
T0
M82 ; absolutEextrusion mode

G92 E0
M109 S215
G0 F15000 X9 Y6 Z2
G280
G1 F1500 E-6.5
;LAYER_COUNT:1
;LAYER:0
M107
M204 S625
M205 X6 Y6
G0 X150 Y150 Z0.2 F1200 ; start location
G0 E0 F1500 ; unretract
M214 K0.25
M204 S4000
M205 X25 Y25

M214 K0.25 ; bueno linear advance

G92 X1.75 Y-0.2628 ; set next pos as current pos

; fir St poly
;G5 X1.75 Y-0.2628 S0 E0
G5 X6.623 Y-0.22095 S0.015675463770208 E0.013853034352284
G5 X7.13765 Y0.0 S0.013853034352284 E0.015616524026432
G5 X11.7497 Y0.0 S0.015616524026432 E0.013536703493401
G5 X7.13765 Y0.0 S0 E0
G5 X6.623 Y0.22095 S0 E0.013853034352284
G5 X1.75 Y0.2628 S0.013853034352284 E0.015675463770208
G5 X1.75 Y-0.2628 S0.015675463770208 E0.015675463770208

; S Econd poly
G5 X1.25 Y-0.78845 S0 E0
G5 X6.64515 Y-0.6628 S0.015675463770208 E0.013853034352284
G5 X7.16255 Y-0.4975 S0.013853034352284 E0.015616524026432
G5 X11.77125 Y-0.4318 S0.015616524026432 E0.013536703493401
G5 X12.2877 Y-0.2475 S0.013536703493401 E0.015538146707581
G5 X16.7664 Y-0.20995 S0.015538146707581 E0.013163940964946
G5 X17.28155 Y0.0 S0.013163940964946 E0.015487358204966
G5 X21.76215 Y0.0 S0.015487358204966 E0.012688974412708
G5 X17.28155 Y0.0 S0 E0
G5 X16.7664 Y0.20995 S0 E0.013163940964946
G5 X12.2877 Y0.2475 S0.013163940964946 E0.015538146707581
G5 X11.77125 Y0.4318 S0.015538146707581 E0.013536703493401
G5 X7.16255 Y0.4975 S0.013536703493401 E0.015616524026432
G5 X6.64515 Y0.6628 S0.015616524026432 E0.013853034352284
G5 X1.25 Y0.78845 S0.013853034352284 E0.015675463770208
G5 X1.25 Y-0.78845 S0.015675463770208 E0.015675463770208

;third poly
G5 X0.75 Y-1.31405 S0 E0
G5 X6.66725 Y-1.10465 S0.015675463770208 E0.013853034352284
G5 X7.1874 Y-0.995 S0.013853034352284 E0.015616524026432
G5 X11.79285 Y-0.86355 S0.015616524026432 E0.013536703493401
G5 X12.31245 Y-0.7425 S0.013536703493401 E0.015538146707581
G5 X16.7874 Y-0.62985 S0.015538146707581 E0.013163940964946
G5 X17.3062 Y-0.4934 S0.013163940964946 E0.015487358204966
G5 X21.7824 Y-0.40475 S0.015487358204966 E0.012688974412708
G5 X22.3001 Y-0.2464 S0.012688974412708 E0.015469801685543
G5 X26.77795 Y-0.19055 S0.015469801685543 E0.011947524976377
G5 X27.29405 Y0.0 S0.011947524976377 E0.01540114315423
G5 X31.77465 Y0.0 S0.01540114315423 E0.010724525293026
G5 X27.29405 Y0.0 S0 E0
G5 X26.77795 Y0.19055 S0 E0.011947524976377
G5 X22.3001 Y0.2464 S0.011947524976377 E0.015469801685543
G5 X21.7824 Y0.40475 S0.015469801685543 E0.012688974412708
G5 X17.3062 Y0.4934 S0.012688974412708 E0.015487358204966
G5 X16.7874 Y0.62985 S0.015487358204966 E0.013163940964946
G5 X12.31245 Y0.7425 S0.013163940964946 E0.015538146707581
G5 X11.79285 Y0.86355 S0.015538146707581 E0.013536703493401
G5 X7.1874 Y0.995 S0.013536703493401 E0.015616524026432
G5 X6.66725 Y1.10465 S0.015616524026432 E0.013853034352284
G5 X0.75 Y1.31405 S0.013853034352284 E0.015675463770208
G5 X0.75 Y-1.31405 S0.015675463770208 E0.015675463770208

;fourth poly
G5 X0.25 Y-1.8397 S0 E0
G5 X6.6894 Y-1.54655 S0.015675463770208 E0.013853034352284
G5 X7.2123 Y-1.49255 S0.013853034352284 E0.015616524026432
G5 X11.81445 Y-1.29535 S0.015616524026432 E0.013536703493401
G5 X12.3372 Y-1.2375 S0.013536703493401 E0.015538146707581
G5 X16.8084 Y-1.04975 S0.015538146707581 E0.013163940964946
G5 X17.3309 Y-0.98675 S0.013163940964946 E0.015487358204966
G5 X21.80265 Y-0.8095 S0.015487358204966 E0.012688974412708
G5 X22.32475 Y-0.73925 S0.012688974412708 E0.015469801685543
G5 X26.797 Y-0.57165 S0.015469801685543 E0.011947524976377
G5 X27.31855 Y-0.49065 S0.011947524976377 E0.01540114315423
G5 X31.7917 Y-0.34165 S0.01540114315423 E0.010724525293026
G5 X32.3124 Y-0.24315 S0.010724525293026 E0.015264139600878
G5 X36.78745 Y-0.1314 S0.015264139600878 E0.008239023757621
G5 X37.2968 Y0.0 S0.008239023757621 E0.014782589353857
G5 X39.284 Y0.0 S0.014782589353857 E0.007797602697852
G5 X37.2968 Y0.0 S0 E0
G5 X36.78745 Y0.1314 S0 E0.008239023757621
G5 X32.3124 Y0.24315 S0.008239023757621 E0.015264139600878
G5 X31.7917 Y0.34165 S0.015264139600878 E0.010724525293026
G5 X27.31855 Y0.49065 S0.010724525293026 E0.01540114315423
G5 X26.797 Y0.57165 S0.01540114315423 E0.011947524976377
G5 X22.32475 Y0.73925 S0.011947524976377 E0.015469801685543
G5 X21.80265 Y0.8095 S0.015469801685543 E0.012688974412708
G5 X17.3309 Y0.98675 S0.012688974412708 E0.015487358204966
G5 X16.8084 Y1.04975 S0.015487358204966 E0.013163940964946
G5 X12.3372 Y1.2375 S0.013163940964946 E0.015538146707581
G5 X11.81445 Y1.29535 S0.015538146707581 E0.013536703493401
G5 X7.2123 Y1.49255 S0.013536703493401 E0.015616524026432
G5 X6.6894 Y1.54655 S0.015616524026432 E0.013853034352284
G5 X0.25 Y1.8397 S0.013853034352284 E0.015675463770208
G5 X0.25 Y-1.8397 S0.015675463770208 E0.015675463770208


M214 K0.0
M107
