;START_OF_HEADER
;HEADER_VERSION:0.1
;FLAVOR:Griffin
;GENERATOR.NAME:Cura_SteamEngine
;GENERATOR.VERSION:3.1.0
;GENERATOR.BUILD_DATE:2017-12-05
;TARGET_MACHINE.NAME:Ultimaker 3
;EXTRUDER_TRAIN.0.INITIAL_TEMPERATURE:215
;EXTRUDER_TRAIN.0.MATERIAL.VOLUME_USED:9172
;EXTRUDER_TRAIN.0.MATERIAL.GUID:506c9f0d-e3aa-4bd4-b2d2-23e2425b1aa9
;EXTRUDER_TRAIN.0.NOZZLE.DIAMETER:0.4
;EXTRUDER_TRAIN.0.NOZZLE.NAME:AA 0.4
;BUILD_PLATE.INITIAL_TEMPERATURE:60
;PRINT.TIME:5201
;PRINT.SIZE.MIN.X:9
;PRINT.SIZE.MIN.Y:6
;PRINT.SIZE.MIN.Z:0.27
;PRINT.SIZE.MAX.X:173.325
;PRINT.SIZE.MAX.Y:164.325
;PRINT.SIZE.MAX.Z:60.03
;END_OF_HEADER
;Generated with Cura_SteamEnginE3.1.0
T0
M82 ; absolutEextrusion mode

G92 E0
M109 S215
G0 F15000 X9 Y6 Z2
G280
G1 F1500 E-6.5
;LAYER_COUNT:1
;LAYER:0
M107
M204 S625
M205 X6 Y6
G0 X150 Y150 Z0.2 F1200 ; start location
G0 E0 F1500 ; unretract
M214 K0.25
M204 S4000
M205 X25 Y25

M214 K0.25 ; bueno linear advance

G92 X3.50002 Y0.52562 ; set current pos as middle
M83
G1 X3.50002 Y0.52562 E0
G1 X23.86008 Y0.36072 E0.011380386697171
G1 X24.025 Y0 E0.011380386697171
G1 X23.86008 Y-0.36072 E0.011380386697171
G1 X3.50002 Y-0.52562 E0.015675463770208
G1 X3.50002 Y0.52562 E0.015675463770208

;second poly
G1 X2.50002 Y1.57687 E0
G1 X24.58151 Y1.08215 E0.011505790407333
G1 X25.02263 Y0.47202 E0.014828988726617
G1 X43.84644 Y0.32212 E0.010189051450635
G1 X44.04995 Y0 E0.010189051450635
G1 X43.84644 Y-0.32212 E0.010189051450635
G1 X25.02263 Y-0.47202 E0.014828988726617
G1 X24.58151 Y-1.08215 E0.011505790407333
G1 X2.50002 Y-1.57687 E0.015675463770208
G1 X2.50002 Y1.57687 E0.015675463770208

;third poly
G1 X1.50001 Y2.62812 E0
G1 X25.30295 Y1.80359 E0.011662545045035
G1 X25.96757 Y1.41696 E0.015173848929562
G1 X44.49054 Y0.96622 E0.010345806088338
G1 X45.0461 Y0.47053 E0.014891690581698
G1 X63.79394 Y0.24465 E0.007743679102483
G1 X64.07491 Y0 E0.007743679102483
G1 X63.79394 Y-0.24465 E0.007743679102483
G1 X45.0461 Y-0.47053 E0.014891690581698
G1 X44.49054 Y-0.96622 E0.010345806088338
G1 X25.96757 Y-1.41696 E0.015173848929562
G1 X25.30295 Y-1.80359 E0.011662545045035
G1 X1.50001 Y-2.62812 E0.015675463770208
G1 X1.50001 Y2.62812 E0.015675463770208

;fourth poly
G1 X0.5 Y3.67937 E0
G1 X26.02438 Y2.52502 E0.011787948755197
G1 X26.91338 Y2.36277 E0.015424656349885
G1 X45.13451 Y1.61019 E0.01050256072604
G1 X45.98715 Y1.41158 E0.015267901712183
G1 X64.28323 Y0.73395 E0.007931784667725
G1 X65.0648 Y0.46427 E0.014923041509238
G1 X73.81267 Y0.25091 E0.008057188377887
G1 X74.08739 Y0 E0.008057188377887
G1 X73.81267 Y-0.25091 E0.008057188377887
G1 X65.0648 Y-0.46427 E0.014923041509238
G1 X64.28323 Y-0.73395 E0.007931784667725
G1 X45.98715 Y-1.41158 E0.015267901712183
G1 X45.13451 Y-1.61019 E0.01050256072604
G1 X26.91338 Y-2.36277 E0.015424656349885
G1 X26.02438 Y-2.52502 E0.011787948755197
G1 X0.5 Y-3.67937 E0.015675463770208
G1 X0.5 Y3.67937 E0.015675463770208

M214 K0.0
M107
